X: 74
down centre,
[outside]
M:2/4
L:1/16
K:D
|:vfedB ABde|fafd e2(eg)|fedB ABde|faeg f2d2:|
|:vDAFA DAFA | DAFA B2(3EFE|DAFA DAFA| BABc d2d2:|
|:v.f2df .e2cA|.d2Bd .c2AA|BAFA BcdB|AGFE D2z2:|


